X:201
T: Wanderlust (3-43), S. 113f
N: K1176
O: Luxemburg
S: KINTZELE, Guillaume: An der Ucht, Bd. 3 Luxemburg 1928]
N: in der Quelle mit einer 2. Stimme versehen
R: ???]
M: 3/4
L: 1/16
K: D
D2E2 | F4F6G2 | B4A6F2 | A3GG4A4 | F8
D2E2 | F4F6G2 | B4A6F2 | A3GG4A4 | F8
F2F2 | E4A6A2 | ^G4B6B2 | e3dc3BA3^G | A8
A2G2 | F3DF6G2 | B4A6F2 | A3GG4A4 | F8

@@@ Tune index: 8255
